static/images/icons/user_interviews.svg

<svg width="93" height="80" viewBox="0 0 93 80" fill="none" xmlns="http://www.w3.org/2000/svg">
<path d="M27.9 13.3999C23.7 13.3999 20.3 16.7999 20.3 20.9999C20.3 21.7999 21 22.4999 21.8 22.4999C22.6 22.4999 23.3 21.7999 23.3 20.9999C23.3 18.3999 25.4 16.3999 27.9 16.3999C30.4 16.3999 32.5 18.4999 32.5 20.9999C32.5 23.4999 30.4 25.5999 27.9 25.5999C27.1 25.5999 26.4 26.2999 26.4 27.0999V35.8999C26.4 36.6999 27.1 37.3999 27.9 37.3999C28.7 37.3999 29.4001 36.6999 29.4001 35.8999V28.3999C32.9001 27.6999 35.5 24.5999 35.5 20.8999C35.6 16.7999 32.1 13.3999 27.9 13.3999Z" fill="currentColor"/>
<path d="M27.8999 39.3999C27.0999 39.3999 26.3999 40.0999 26.3999 40.8999C26.3999 41.6999 27.0999 42.3999 27.8999 42.3999C28.6999 42.3999 29.3999 41.6999 29.3999 40.8999C29.3999 40.0999 28.7999 39.3999 27.8999 39.3999Z" fill="currentColor"/>
<path d="M85.8 70.2C90.4 65.1 93 58.5 93 51.5C93 36.1 80.5 23.6 65.1 23.6C61.8 23.6 58.7 24.2 55.8 25.2C54.4 11.1 42.5 0 28 0C12.5 0 0 12.5 0 27.9C0 34.9 2.5 41.4 7.2 46.6L0.5 53.3C0.1 53.7 -0.1 54.4 0.2 54.9C0.5 55.4 1 55.8 1.6 55.8H28C31.3 55.8 34.4 55.2 37.3 54.2C38.7 68.3 50.6 79.4 65.1 79.4H91.5C92.1 79.4 92.7 79 92.9 78.5C93.1 78 93 77.3 92.6 76.9L85.8 70.2ZM5.1 52.8L10.3 47.6C10.6 47.3 10.7 46.9 10.7 46.5C10.7 46.1 10.5 45.7 10.3 45.4C5.6 40.7 3 34.4 3 27.8C3 14 14.2 2.9 27.9 2.9C41.1 2.9 52 13.3 52.8 26.3C43.6 30.8 37.3 40.2 37.1 51C34.3 52.1 31.2 52.8 27.9 52.8H5.1V52.8ZM52.8 29.8C52.2 38.3 47.2 45.6 40.2 49.6C40.8 41.1 45.8 33.8 52.8 29.8ZM65.1 76.4C51.9 76.4 41 66 40.2 53C49.4 48.5 55.7 39.1 55.9 28.3C58.7 27.2 61.8 26.5 65.1 26.5C78.9 26.5 90 37.7 90 51.4C90 58.1 87.4 64.3 82.7 69C82.4 69.3 82.3 69.7 82.3 70.1C82.3 70.5 82.5 70.9 82.7 71.2L87.9 76.4H65.1Z" fill="currentColor"/>
<path d="M71.2 48.7C70.4 48.7 69.7 49.4 69.7 50.2C69.7 51 70.4 51.7 71.2 51.7C72 51.7 72.7 51 72.7 50.2C72.7 49.4 72.1 48.7 71.2 48.7Z" fill="currentColor"/>
<path d="M65.2 48.7C64.4 48.7 63.7 49.4 63.7 50.2C63.7 51 64.4 51.7 65.2 51.7C66 51.7 66.7 51 66.7 50.2C66.7 49.4 66.1 48.7 65.2 48.7Z" fill="currentColor"/>
<path d="M59.2 48.7C58.4 48.7 57.7 49.4 57.7 50.2C57.7 51 58.4 51.7 59.2 51.7C60 51.7 60.6999 51 60.6999 50.2C60.6999 49.4 60.1 48.7 59.2 48.7Z" fill="currentColor"/>
</svg>

<svg fill="none" height="80" viewBox="0 0 93 80" width="93" xmlns="http://www.w3.org/2000/svg"><g fill="currentColor"><path d="m27.9 13.3999c-4.2 0-7.6 3.4-7.6 7.6 0 .8.7 1.5 1.5 1.5s1.5-.7 1.5-1.5c0-2.6 2.1-4.6 4.6-4.6s4.6 2.1 4.6 4.6-2.1 4.6-4.6 4.6c-.8 0-1.5.7-1.5 1.5v8.8c0 .8.7 1.5 1.5 1.5s1.5001-.7 1.5001-1.5v-7.5c3.5-.7 6.0999-3.8 6.0999-7.5.1-4.1-3.4-7.5-7.6-7.5z"/><path d="m27.8999 39.3999c-.8 0-1.5.7-1.5 1.5s.7 1.5 1.5 1.5 1.5-.7 1.5-1.5-.6-1.5-1.5-1.5z"/><path d="m85.8 70.2c4.6-5.1 7.2-11.7 7.2-18.7 0-15.4-12.5-27.9-27.9-27.9-3.3 0-6.4.6-9.3 1.6-1.4-14.1-13.3-25.2-27.8-25.2-15.5 0-28 12.5-28 27.9 0 7 2.5 13.5 7.2 18.7l-6.7 6.7c-.4.4-.6 1.1-.3 1.6s.8.9 1.4.9h26.4c3.3 0 6.4-.6 9.3-1.6 1.4 14.1 13.3 25.2 27.8 25.2h26.4c.6 0 1.2-.4 1.4-.9s.1-1.2-.3-1.6zm-80.7-17.4 5.2-5.2c.3-.3.4-.7.4-1.1s-.2-.8-.4-1.1c-4.7-4.7-7.3-11-7.3-17.6 0-13.8 11.2-24.9 24.9-24.9 13.2 0 24.1 10.4 24.9 23.4-9.2 4.5-15.5 13.9-15.7 24.7-2.8 1.1-5.9 1.8-9.2 1.8zm47.7-23c-.6 8.5-5.6 15.8-12.6 19.8.6-8.5 5.6-15.8 12.6-19.8zm12.3 46.6c-13.2 0-24.1-10.4-24.9-23.4 9.2-4.5 15.5-13.9 15.7-24.7 2.8-1.1 5.9-1.8 9.2-1.8 13.8 0 24.9 11.2 24.9 24.9 0 6.7-2.6 12.9-7.3 17.6-.3.3-.4.7-.4 1.1s.2.8.4 1.1l5.2 5.2z"/><path d="m71.2 48.7c-.8 0-1.5.7-1.5 1.5s.7 1.5 1.5 1.5 1.5-.7 1.5-1.5-.6-1.5-1.5-1.5z"/><path d="m65.2 48.7c-.8 0-1.5.7-1.5 1.5s.7 1.5 1.5 1.5 1.5-.7 1.5-1.5-.6-1.5-1.5-1.5z"/><path d="m59.2 48.7c-.8 0-1.5.7-1.5 1.5s.7 1.5 1.5 1.5 1.4999-.7 1.4999-1.5-.5999-1.5-1.4999-1.5z"/></g></svg>
